X: 2282
T: Back Of The Change House
R: strathspey
M: 4/4
K: Dmajor
|:d>B|A>F A<f e>dB>d|A>FA<B d>ed<B|A>F A<f e>dB>g|f<aA<B B<d:|
|:(3dfg|f>ed<f e>dB>g|f>ef<g a>ba<g|f>ed<f e>dB>g|f<aA<B B<d:|

